svg/echo.svg

<svg viewBox="0 0 20 20" xmlns="http://www.w3.org/2000/svg">
<rect width="100%" height="100%" fill="#00AFD1"/>
<path d="M12.862 3.9078L10.6484 5.191L12.778 6.4342L15.034 5.191L12.862 3.9078Z" fill="white"/>
<path d="M15.6188 2.375L13.4052 3.659L15.5356 4.8598L17.7916 3.659L15.6188 2.375Z" fill="white"/>
<path d="M4.54758 2.4582L2.33398 3.7006L4.46358 4.943L6.72038 3.7006L4.54758 2.4582Z" fill="white"/>
<path d="M7.22118 3.9486L5.00758 5.2326L7.17958 6.4342L9.43558 5.2326L7.22118 3.9486Z" fill="white"/>
<path d="M2 4.1142V6.8478L4.2144 8.0902V5.399L2 4.1142Z" fill="white"/>
<path d="M4.7568 5.647V8.3806L7.0128 9.5814V6.931L4.7568 5.647Z" fill="white"/>
<path d="M7.472 7.0966V9.8302L9.6864 11.031V8.3806L7.472 7.0966Z" fill="white"/>
<path d="M18.0003 6.8894V4.1558L15.7443 5.4398V8.1318L18.0003 6.8894Z" fill="white"/>
<path d="M15.2011 8.4222V5.6886L12.9875 6.9734V9.6222L15.2011 8.4222Z" fill="white"/>
<path d="M12.4859 9.871V7.1382L10.2715 8.423V11.071L12.4859 9.871Z" fill="white"/>
<path d="M2 7.3862V10.1198L4.2144 11.3214V8.6694L2 7.3862Z" fill="white"/>
<path d="M4.7568 8.8774V11.611L7.0128 12.8534V10.203L4.7568 8.8774Z" fill="white"/>
<path d="M7.472 10.327V13.0606L9.6864 14.2614V11.611L7.472 10.327Z" fill="white"/>
<path d="M18.0003 10.1614V7.4278L15.7443 8.71179V11.3622L18.0003 10.1614Z" fill="white"/>
<path d="M15.2011 11.6942V8.9606L12.9875 10.2446V12.8942L15.2011 11.6942Z" fill="white"/>
<path d="M12.4859 13.1022V10.3686L10.2715 11.6526V14.303L12.4859 13.1022Z" fill="white"/>
<path d="M2 10.6174V13.3502L4.2144 14.5934V11.9006L2 10.6174Z" fill="white"/>
<path d="M4.7568 12.1494V14.883L7.0128 16.0838V13.4334L4.7568 12.1494Z" fill="white"/>
<path d="M7.472 13.599V16.3326L9.6864 17.5334V14.883L7.472 13.599Z" fill="white"/>
<path d="M18.0003 13.3918V10.6582L15.7443 11.9838V14.6342L18.0003 13.3918Z" fill="white"/>
<path d="M15.2011 14.9246V12.191L12.9875 13.475V16.1254L15.2011 14.9246Z" fill="white"/>
<path d="M12.4859 16.3742V13.6406L10.2715 14.9246V17.575L12.4859 16.3742Z" fill="white"/>
<path d="M10.021 5.4398L7.80664 6.7238L9.97944 7.9246L10.021 5.4398Z" fill="white"/>
<path d="M9.97944 7.9246L10.021 5.4398L12.1939 6.7238L9.97944 7.9246Z" fill="white"/>
</svg>

<svg xmlns="http://www.w3.org/2000/svg" viewBox="0 0 20 20">
  <rect width="100%" height="100%" fill="#00AFD1"/>
  <path fill="#fff" d="m12.86 3.9-2.21 1.3 2.13 1.23 2.25-1.24-2.17-1.28ZM15.62 2.38 13.4 3.66l2.13 1.2 2.25-1.2-2.17-1.29ZM4.55 2.46 2.33 3.7l2.13 1.24L6.72 3.7 4.55 2.46ZM7.22 3.95 5.01 5.23l2.17 1.2 2.26-1.2-2.22-1.28ZM2 4.11v2.74l2.21 1.24v-2.7L2 4.12ZM4.76 5.65v2.73L7 9.58V6.93L4.76 5.65ZM7.47 7.1v2.73l2.22 1.2V8.38L7.47 7.1ZM18 6.89V4.16l-2.26 1.28v2.7L18 6.88ZM15.2 8.42V5.7L13 6.97v2.65l2.21-1.2ZM12.49 9.87V7.14l-2.22 1.28v2.65l2.22-1.2ZM2 7.39v2.73l2.21 1.2V8.67L2 7.39ZM4.76 8.88v2.73L7 12.85V10.2L4.76 8.88ZM7.47 10.33v2.73l2.22 1.2v-2.65l-2.22-1.28ZM18 10.16V7.43L15.74 8.7v2.65l2.26-1.2ZM15.2 11.7V8.95L13 10.24v2.65l2.21-1.2ZM12.49 13.1v-2.73l-2.22 1.28v2.65l2.22-1.2ZM2 10.62v2.73l2.21 1.24V11.9L2 10.62ZM4.76 12.15v2.73L7 16.08v-2.65l-2.25-1.28ZM7.47 13.6v2.73l2.22 1.2v-2.65L7.47 13.6ZM18 13.4v-2.74l-2.26 1.32v2.65L18 13.4ZM15.2 14.92V12.2L13 13.48v2.65l2.21-1.2ZM12.49 16.37v-2.73l-2.22 1.28v2.65l2.22-1.2ZM10.02 5.44 7.81 6.72l2.17 1.2.04-2.48Z"/>
  <path fill="#fff" d="m9.98 7.92.04-2.48 2.17 1.28-2.21 1.2Z"/>
</svg>
